X: 11751
T: Le VAILLANT TROUBADOUR
O: French air.
Q: "Bold and with spirit."
%R: air, march
B: W. Hamilton "Universal Tune-Book" Vol. 1 Glasgow 1844 p.175 #1
S: http://imslp.org/wiki/Hamilton's_Universal_Tune-Book_(Various)
Z: 2016 John Chambers <jc:trillian.mit.edu>
M: C
L: 1/8
K: D
%%stretchstaff 0
% - - - - - - - - - - - - - - - - - - - - - - - - -
Af>d |\
A3A AAB>A | A>GG2 zG A>G |\
F2A>A B2e>e | (d4 c)Af>d |\
A2AA A2B>A | ^G>Bd2 zB cd |\
c2B>B A2^G>G | A2z2 z2A2 |
=f3d d3d | (c2A2) z2A2 |\
^f3d d3d | (c2A2) z !segno!:|\
|: A B>c |\
d2d>d (fe)dc | B2 g4 f>e |\
d2A>A A2B>c | d2z2 z2 !segno!:|
% - - - - - - - - - - - - - - - - - - - - - - - - -

%%sep 1 1 500
%%sep 1 1 500

